labtop/public/img/digital-icon.svg

<svg width="52" height="52" viewBox="0 0 52 52" fill="none" xmlns="http://www.w3.org/2000/svg">
<path d="M45.1455 43.5382L43.0655 41.6473C44.8145 39.7091 46.2327 37.5818 47.2255 35.3127L49.8255 36.4473C48.6909 39 47.1309 41.3636 45.1455 43.5382ZM52 26C52 11.6764 40.3236 0 26 0C24.0618 0 22.1709 0.189091 20.3745 0.614545L20.9891 3.40364C22.5964 3.02545 24.2982 2.83636 26 2.83636C38.7636 2.83636 49.1636 13.2364 49.1636 26C49.1636 27.1818 49.0691 28.3164 48.88 29.3564L51.6691 29.8291C51.9055 28.6473 52 27.3236 52 26ZM8.13091 11.2036L5.90909 9.40727C5.2 10.3055 4.63273 11.0618 4.11273 11.8655L6.47636 13.4255C6.99636 12.7164 7.51636 12.0073 8.13091 11.2036ZM33.6109 50.8655L32.76 48.1709C30.5855 48.8327 28.3164 49.2109 26 49.2109C13.2364 49.1636 2.83636 38.7636 2.83636 26C2.83636 23.6364 3.16727 21.32 3.87636 19.0982L1.18182 18.2473C0.378182 20.7527 0 23.3527 0 26C0 40.3236 11.6764 52 26 52C28.6 52 31.1527 51.6218 33.6109 50.8655ZM26 9.78545C28.8836 9.78545 31.6727 10.5418 34.1309 11.96L35.5491 9.50182C32.6655 7.84727 29.3564 6.94909 26 6.94909C15.5055 6.94909 6.94909 15.5055 6.94909 26H9.78545C9.78545 17.0655 17.0655 9.78545 26 9.78545ZM14.7491 37.6764C13.8982 36.8727 13.1891 36.0218 12.6218 35.1236L10.2109 36.6364C10.92 37.7236 11.7709 38.7636 12.8109 39.7564L14.7491 37.6764ZM45.0509 26H42.2145C42.2145 34.9345 34.9345 42.2145 26 42.2145C23.1164 42.2145 20.3273 41.4582 17.8691 40.04L16.4509 42.4982C19.3345 44.1527 22.6436 45.0509 26 45.0509C36.4945 45.0509 45.0509 36.4945 45.0509 26ZM41.7891 15.3636C41.1273 14.2764 40.2291 13.2364 39.2364 12.2436L37.2982 14.3236C38.1491 15.1273 38.8582 15.9782 39.4255 16.8764L41.7891 15.3636ZM35.2182 31.3418V20.6582L26 15.2691L16.7818 20.6582V31.3891L26 36.7309L35.2182 31.3418ZM19.6182 22.2655L26 18.5782L32.3818 22.3127V29.7345L26 33.4218L19.6182 29.6873V22.2655Z" fill="#1F65D9"/>
</svg>

<svg width="52" height="52" fill="none" xmlns="http://www.w3.org/2000/svg"><path d="M45.145 43.538l-2.08-1.89c1.75-1.939 3.168-4.066 4.16-6.335l2.6 1.134c-1.134 2.553-2.694 4.917-4.68 7.091zM52 26C52 11.676 40.324 0 26 0c-1.938 0-3.83.19-5.625.615l.614 2.789A22.008 22.008 0 0126 2.836c12.764 0 23.164 10.4 23.164 23.164a18.9 18.9 0 01-.284 3.356l2.79.473c.236-1.182.33-2.505.33-3.829zM8.13 11.204L5.91 9.407c-.71.899-1.277 1.655-1.797 2.459l2.363 1.56c.52-.71 1.04-1.419 1.655-2.222zm25.48 39.661l-.85-2.694c-2.174.662-4.444 1.04-6.76 1.04C13.236 49.164 2.836 38.764 2.836 26c0-2.364.331-4.68 1.04-6.902l-2.694-.85C.378 20.752 0 23.352 0 26c0 14.324 11.676 26 26 26 2.6 0 5.153-.378 7.61-1.135zM26 9.785c2.884 0 5.673.757 8.13 2.175l1.42-2.458A19.251 19.251 0 0026 6.949C15.505 6.95 6.95 15.505 6.95 26h2.835c0-8.934 7.28-16.215 16.215-16.215zM14.75 37.676a13.267 13.267 0 01-2.128-2.552l-2.411 1.512a17.522 17.522 0 002.6 3.12l1.938-2.08zM45.05 26h-2.835c0 8.934-7.28 16.215-16.215 16.215-2.884 0-5.673-.757-8.13-2.175l-1.42 2.458A19.252 19.252 0 0026 45.051c10.495 0 19.05-8.556 19.05-19.051zm-3.26-10.636c-.663-1.088-1.56-2.128-2.554-3.12l-1.938 2.08c.851.803 1.56 1.654 2.127 2.552l2.364-1.512zm-6.572 15.978V20.658L26 15.27l-9.218 5.39v10.73L26 36.731l9.218-5.39zm-15.6-9.076L26 18.578l6.382 3.735v7.422L26 33.422l-6.382-3.735v-7.422z" fill="#1F65D9"/></svg>
